icons/folder-target.svg

<svg xmlns="http://www.w3.org/2000/svg" viewBox="0 0 16 16">
<path id="folder" fill="#546e7a" d="m6.922 3.768-.644-.536A1 1 0 0 0 5.638 3H2a1 1 0 0 0-1 1v8a1 1 0 0 0 1 1h12a1 1 0 0 0 1-1V5a1 1 0 0 0-1-1H7.562a1 1 0 0 1-.64-.232" />
<path id="motive" fill="#cfd8dc" d="m 14.576172,5 -2.136719,2.1366017 -0.355469,1.0663478 -0.810546,0.8124554 a 1.0069668,1.0069047 0 0 0 -0.498047,-0.00586 c -0.01242,0.00333 -0.02536,0.00766 -0.03711,0.011718 a 1.0069668,1.0069047 0 0 0 -0.183593,0.072262 c -0.01813,0.00906 -0.0369,0.019222 -0.05469,0.029295 a 1.0069668,1.0069047 0 1 0 1.376953,1.3768781 c 0.01007,-0.01779 0.01861,-0.03622 0.02734,-0.05468 a 1.0069668,1.0069047 0 0 0 0.07422,-0.183583 l 0.01172,-0.03711 a 1.0069668,1.0069047 0 0 0 -0.0059,-0.4980196 L 12.794922,8.915801 13.863281,8.5603518 16,6.4237501 h -1.423828 z m -3.806641,0.00586 a 5,4.999726 0 1 0 4.884766,3.1677951 l -0.791016,0.7909723 a 4,3.9997808 0 1 1 -2.830078,-2.82797 L 12.826172,5.3456842 A 5,4.999726 0 0 0 10.769531,5.00586 Z m 0.138672,1.9959843 A 3,2.9998356 0 1 0 13.982422,9.669666 L 12.988281,9.779035 A 2,1.9998904 0 1 1 11.220703,8.0115538 l 0.109375,-0.9940863 a 3,2.9998356 0 0 0 -0.421875,-0.015623 z" />
</svg>

<svg xmlns="http://www.w3.org/2000/svg" viewBox="0 0 16 16"><path id="folder" fill="#546e7a" d="m6.922 3.768-.644-.536A1 1 0 0 0 5.638 3H2a1 1 0 0 0-1 1v8a1 1 0 0 0 1 1h12a1 1 0 0 0 1-1V5a1 1 0 0 0-1-1H7.562a1 1 0 0 1-.64-.232"/><path id="motive" fill="#cfd8dc" d="M14.576 5 12.44 7.137l-.355 1.066-.81.812a1 1 0 0 0-.499-.005l-.037.011a1 1 0 0 0-.183.073l-.055.029a1.007 1.007 0 1 0 1.377 1.377q.015-.027.027-.055a1 1 0 0 0 .075-.184l.011-.037a1 1 0 0 0-.006-.498l.81-.81 1.07-.356L16 6.424h-1.424zm-3.806.006a5 5 0 1 0 4.884 3.168l-.79.79a4 4 0 1 1-2.83-2.827l.792-.791a5 5 0 0 0-2.056-.34m.138 1.996a3 3 0 1 0 3.074 2.668l-.994.109a2 2 0 1 1-1.767-1.767l.11-.995a3 3 0 0 0-.423-.015"/></svg>
